X:151
T:Corstorphine Fair
P:ABABB x 4
C:Nan Main
L:1/8
M:6/8
S:Colin Hume's website,  colinhume.com  - chords can also be printed below the stave.
Q:3/8=120
K:A
P:A
e | "A"a2e "/"c2A | "E7"EFG "A"A2A | "A"cBA "/"e2a | "A7"e3- "/"e2e |\
"D"f2d "Bm"B2f | "A"e2c "F#m"A2e | "Bm"d2c "B7/D#"B2A | "E"GBG "E7"EFG |
P:B
"A"A2a "/"aec | "Bm"B2b "E7"bge | "A"a2f "/"e2c | "E7"e3 "/"B2d |\
"A"c2e "Bm"d2f | "A/C#"e2a "A7"c'2b | "D"agf "E7"e2c | "A"A3- "/"A2 |]

